!!!!SEGMENT: pl-kk--kk-i-3--051-002_anonim--quintis-ferija-benedictus.krn
!!!cenid: 15xx:706
!!!COM: Anonim
!!!COM-rismid: pe30004985
!!!CDT:
!!!CNT:
!!!OPR: Quintis ferija
!!!OTL: Benedictus
!!!OMV: 002
!!!PDT:
!!!AGN:
!!!SMS-siglum: PL-Kk
!!!SMS-shelfmark: Kk.I.3
!!!SMS-shelfwork: 051-002 M
!!!SMS-variant:
!!!SMS-altvar:
!!!NIFC-rismid: 1001145548
!!!URL-scan: http://repozytorium.nifc.pl/skany/pl-kk-nut--i-3
!!!ONB-nifc: UWAGA: Discantus (s. 139r, skan 0141), Tenor (s. 104r-v, skan 0276-0277), Bassus (s. 133v-134r, skan 0437). Części: 1. Sanctus, 2. Benedictus, 3. Agnus Dei
!!!key: d:dor
**kern	**text	**kern	**text	**kern	**text
*part3	*part3	*part2	*part2	*part1	*part1
*staff3	*staff3	*staff2	*staff2	*staff1	*staff1
*I"Bassus	*	*I"Tenor	*	*I"Discantus	*
*I'B	*	*I'T	*	*I'A	*
*Ibass	*	*Itenor	*	*Ialto	*
*ICvox	*	*ICvox	*	*ICvox	*
*clefF4	*	*clefC4	*	*clefC3	*
*k[b-]	*	*k[]	*	*k[b-]	*
*d:	*	*d:	*	*d:	*
*M2/1	*	*M2/1	*	*M2/1	*
*met(C|)	*	*met(C|)	*	*met(C|)	*
*all\right	*	*	*	*all\right	*
=1-	=1-	=1-	=1-	=1-	=1-
0D	Be-	0d	Be-	0f	Be-
=2-	=2-	=2-	=2-	=2-	=2-
0AA	-ne-	0c	-ne-	0e	-ne-
=3-	=3-	=3-	=3-	=3-	=3-
*lig	*	*lig	*	*	*
1D	.	1A	.	1.d	.
1GG	.	1G	.	.	.
*	*	*	*	*2\right	*
.	.	.	.	2e\	.
*Xlig	*	*Xlig	*	*	*
=4-	=4-	=4-	=4-	=4-	=4-
*	*	*lig	*	*	*
!	!	!	!	!LO:SIC:v:t=custos c	!
2D/	.	1A	.	1f	.
2.F/	.	.	.	.	.
!	!	!	!	!LO:LB:g=original	!
.	.	1F	.	2c/	.
!LO:SIC:v:t=custos D	!	!	!	!	!
4E/	.	.	.	.	.
!LO:LB:g=original	!	!	!	!	!
2D/	.	.	.	1f\	.
*	*	*Xlig	*	*	*
=5-	=5-	=5-	=5-	=5-	=5-
1C	.	1G	-di-	.	.
.	.	.	.	2e\	.
1.F	-di-	0A	-ct(us)	2f\	-di-
.	.	.	.	4e\	-ct(us)
.	.	.	.	4d\	.
=6-	=6-	=6-	=6-	=6-	=6-
.	.	.	.	1c	.
*2\right	*	*	*	*	*
2G\	-ctus	.	.	.	.
*	*	*lig	*	*	*
1A	.	1D	qui	2.f\	qui
.	.	.	.	4e\	.
=7-	=7-	=7-	=7-	=7-	=7-
1D	.	1F	.	2f\	.
.	.	.	.	1d	.
*	*	*Xlig	*	*	*
*	*	*lig	*	*	*
1AA	qvi	1E	.	.	.
.	.	.	.	2c/	.
=8-	=8-	=8-	=8-	=8-	=8-
2A\	.	1D	.	1d	.
2B-\	.	.	.	.	.
*	*	*Xlig	*	*	*
*	*	*lig	*	*	*
1A	.	1F	.	1c	.
=9-	=9-	=9-	=9-	=9-	=9-
2F\	ve-	1D	.	2d/	ve-
!	!	!	!	!LO:SIC:v:t=custos f	!
2G\	.	.	.	2e/	.
*	*	*Xlig	*	*	*
!	!	!	!	!LO:LB:g=original	!
2A\	.	1D	ve-	2f\	-nit
2B-\	.	.	.	1f\	.
=10-	=10-	=10-	=10-	=10-	=10-
!LO:SIC:v:t=custos C	!	!LO:SIC:v:t=custos F	!	!	!
2c\	.	1C	-nit	.	.
!LO:PB:g=original	!	!	!	!	!
2C/	-nit	.	.	2e\	.
!	!	!LO:PB:g=original	!	!	!
1D	.	1F	in	2f\	in
.	.	.	.	2d/	.
=11-	=11-	=11-	=11-	=11-	=11-
1E	in	1G	no-	1g	no-
2D/	no-	1A	-mi-	2f\	.
2C/	-mi-	.	.	2e\	-mi-
=12-	=12-	=12-	=12-	=12-	=12-
1G	-ne	1B-y	-ne	1d	-ne
*	*	*lig	*	*	*
1C	.	1c	do-	2c/	.
.	.	.	.	2e\	do-
=13-	=13-	=13-	=13-	=13-	=13-
2D/	do-	1A	.	2f\	.
2.F/	.	.	.	2.a\	.
*	*	*Xlig	*	*	*
*	*	*lig	*	*	*
.	.	1F	.	.	.
4E/	.	.	.	4g\	.
2.D/	.	.	.	2.f\	.
=14-	=14-	=14-	=14-	=14-	=14-
.	.	1D	.	.	.
!	!	!	!	!LO:SIC:v:t=custos d	!
4C/	.	.	.	4e\	.
!	!	!	!	!LO:LB:g=original	!
2BB-/	.	.	.	1d	.
*	*	*Xlig	*	*	*
1AA	.	1E	-mi-	.	.
.	.	.	.	2c/	.
=15-	=15-	=15-	=15-	=15-	=15-
!	!	!LO:SIC:v:t=custos D	!	!	!
1.BB-	.	[0Dl;	-ni	1.d	.
!LO:SIC:v:t=custos GG	!	!	!	!	!
2AA/	.	.	.	2c/	.
!LO:LB:g=original	!	!	!	!	!
=16-	=16-	=16-	=16-	=16-	=16-
2GG/	.	0D_	.	2B-/	.
2FF/	.	.	.	2A/	.
1GG	-mi-	.	.	2G/	-mi-
.	.	.	.	2g\	-ni
=17-	=17-	=17-	=17-	=17-	=17-
!LO:SIC:v:t=custos D	!	!	!	!LO:SIC:v:t=custos d	!
0Dl;	-ni	0D]	.	0fl;	.
==	==	==	==	==	==
*-	*-	*-	*-	*-	*-
!!!system-decoration: [(*)]
!!!RDF**kern: l = terminal long
!!!ENC: Andrzej Gręziak
!!!END: 2022-01-20
!!!ENC: Andrzej Kubiczek
!!!END: 2022-01-28
